X:1
T:Étude Op. 25 No. 2 in F minor
T:Étude Op. 25 No. 2 in F minor
T:"The Bees"
T:Frédéric Chopin
C:Frédéric Chopin
%%score { ( 1 3 ) | 2 }
L:1/8
Q:1/4=120
M:4/4
K:Ab
V:1 treble nm="鋼琴" snm="Pno."
V:3 treble 
V:2 bass 
V:1
!p!"_molto legato""^Presto" (c2 |[Q:1/4=224] (3c"_"d=B (3c"_"ed (3c"_"dB (3c"_"^fg | %2
 (3cd=B (3ced (3cdB (3caf |!<(! (3=efe (3^deg (3bc'b (3=ab_d'!<)! | %4
!f!!>(! (3c'd'c' (3=bc'g (3a_ba (3ga=e)!>)! |!p! (3(fgf (3=efc (3d_ed (3cd=B | %6
 (3cdc (3=BcG (3A_BA (3GAF | (3=EGB!<(! (3d=eg (3bd'c' (3bag!<)! | %8
!f!!>(! (3bc'a (3gaf (3=egf (3efd)!>)! |!p! (3(cd=B (3ced (3cdB (3c^fg | (3cd=B (3ced (3cdB (3caf | %11
!<(! (3efe (3=deg (3bc'b (3=abf'!<)! |!f! (3e'f'e' (3=d'e'=b!>(! (3c'_d'c' (3bc'!>)!g) | %13
!>(! (3(aba (3ga=e (3fgf!>)!!mp! (3efd | (3cdB (3GAB!<(! (3cde (3fga!<)! | %15
!f!!>(! (3gaf (3efd (3cd!>)!!mp!B (3cFG | (3ABA (3GA=A (3BcB (3c=FG) | %17
 (3(_ABA (3GA=A (3BcB (3c=FG | (3_ABA (3GAB (3cdc (3=Bcd | %19
[Q:1/4=216] (3cdc[Q:1/4=200] (3=B"_dimin."cd[Q:1/4=168] (3cdc[Q:1/4=104] (3dcd) | %20
!p![Q:1/4=224] (3(cd=B (3ced (3cdB (3c^fg | (3cd=B (3ced (3cdB (3caf | %22
!<(! (3=efe (3^deg (3bc'b (3=ab_d'!<)! |!f!!>(! (3c'd'c' (3=bc'g (3a_ba (3ga=e!>)! | %24
!p! (3fgf (3=efc (3d_ed (3cd=B) | (3(cdc (3=BcG (3A_BA (3GAF | %26
!<(! (3=EGB (3d=eg (3bd'c' (3bag!<)! |!f!!>(! (3bc'a (3gaf (3=egf (3efd!>)! | %28
!p! (3cd=B (3ced (3cdB (3c^fg) | (3(cd=B (3ced (3cdB (3caf |!<(! (3efe (3=deg (3bc'b (3=abf' | %31
 (3e'f'e'!<)!!f! (3=d'e'=b!>(! (3c'_d'c' (3bc'!>)!g |!>(! (3aba (3ga=e (3fgf (3efd)!>)! | %33
!mp! (3(cdB (3GAB (3cde (3fga |!f!!>(! (3gaf (3efd (3cd!>)!!mp!B (3cFG | (3ABA (3GA=A (3BcB (3cFG | %36
"_poco a poco cresc." (3_ABA (3GA=A (3BcB (3c=FG | (3_ABA (3GAB (3cdc!mf!!<(! (3=Bcd)!<)! | %38
!f! (3(efe!>(! (3fed (3cdc (3d=G=A!>)! | (3BcB (3=AB=B"_cresc." (3cdc (3d=GA | %40
 (3BcB (3=AB=B (3cdc (3d=GA |!f! (3_BcB!<(! (3=ABc (3=ded (3^cde)!<)! | %42
!ff! (3(fgf!>(! (3gfe (3=ded (3e=A=B!>)! |!f! (3c_dc (3=Bcg (3a_ba!>(! (3ga=e!>)! | %44
!>(! (3fgf (3_edc (3BAG (3FGA!>)! |!p! (3Gdc (3=Bcg (3a_ba (3ga=e) | (3(fgf (3_edc (3BAG (3FGA | %47
 (3Ggf (3=edc (3B"_smorz."AG (3FGA | (3Ggf (3=edc (3BAG (3FGA | (3Gdc (3=Bcd!pp!!<(! (3cdc (3Bcd | %50
[Q:1/4=216] (3cdc!<)!!f![Q:1/4=200]!>(! (3=Bcd[Q:1/4=168] (3cdc[Q:1/4=104] (3dcd)!>)! | %51
!p![Q:1/4=224] (3(cd=B (3ced (3cdB (3c^fg | (3cd=B (3ced (3cdB (3caf | %53
!<(! (3=efe (3^deg (3bc'b (3=ab_d'!<)! |!f! (3c'd'c'!>(! (3=bc'g (3a_ba (3ga!>)!!p!=e) | %55
!f!!>(! (3(fgf (3=efc (3d_ed (3cd=B!>)! |!mp! (3cdc (3=BcG (3A_BA (3GAF) | %57
 (3(=EGB!<(! (3d=eg (3bd')!<)!(.c' (3.b.a.g) |!f!!>(! (3(bc'a (3gaf (3=egf (3efd)!>)! | %59
!p! (3(cd=B (3ced (3cdB (3c^fg | (3cd=B (3ced (3cdB (3caf |!<(! (3=efe (3^deg (3bc'b (3=ab_d'!<)! | %62
!f!!8va(! (3c'a'g' (3_g'f'=e'!8va)! (3_e'=d'_d' (3c'_c'b) | %63
 (3(=a_ag!>(! (3f'd'b (3gfd (3B!>)!!mp!Gd |[Q:1/4=216] (3cd=B (3cA_B[Q:1/4=200] (3cdc (3dfe | %65
[Q:1/4=168] (3cdB (3ced[Q:1/4=104] (3BcA (3Bdc) | %66
[Q:1/4=150] (3(Fc'b (3agf[Q:1/4=200] (3edc (3B"_dimin."cd | %67
[Q:1/4=216] (3cc'b[Q:1/4=200] (3agf[Q:1/4=168] (3edc[Q:1/4=104] (3B[Q:1/4=46]c{e}"^""^"[Q:1/4=26]d{c} | %68
[Q:1/4=60]!pp! !arpeggio!c4[Q:1/4=50] c2[Q:1/4=40] c2 |[Q:1/4=30] !fermata![FAc]8) |] %70
V:2
 z2 | (3(=E,2"^" G2 C2) (3(_B,2"^" G2 C2) | (3(=F,2 A2 C2) (3(A,2 A2 C2) | %3
[K:treble] (3(G,2 B2 =E2) (3(_D2 B2 E2) | (3(_A,2 A2 F2) (3(C2 A2 F2) | %5
[K:bass]!ped! (3(B,,2 D2 G,2)!ped-up! (3(F,2 D2 G,2) | (3(C,2 C2 A,2) (3(F,2 C2 A,2) | %7
!ped! (3(C,2 =E2 B,2) (3(G,2 E2 B,2)!ped-up! | (3(F,2 F2 C2) (3(A,2 F2 D2) | %9
 (3(=E,2 G2 C2) (3(_B,2 G2 C2) | (3(=F,2 A2 C2) (3(A,2 A2 C2) | %11
[K:treble]!ped! (3(G,2 B2 E2) (3(_D2 B2 E2)!ped-up! |!ped! (3(_A,2 A2 E2) (3(C2 A2 E2)!ped-up! | %13
[K:bass]!ped! (3(D,2 F2 B,2) (3(A,2 F2 B,2)!ped-up! | (3(_E,2 E2 C2) (3(A,2 E2 C2) | %15
 (3(E,2 E2 D2) (3(G,2 E2 D2) |!ped! (3(A,,2 C2 E,2)!ped-up! (3(!>!_F,2 D2 E,2) | %17
!ped! (3(A,,2 C2 E,2)!ped-up! (3(!>!_F,2 D2 E,2) | %18
!ped! (3(A,,2 C2 E,2)!ped-up!!ped! (3(C,2 G,2 _B,2 | =E2)!ped-up! z2 z4 | %20
 (3(=E,2 G2 C2) (3(_B,2 G2 C2) | (3(=F,2 A2 C2) (3(A,2 A2 C2) | %22
[K:treble] (3(G,2 B2 =E2) (3(_D2 B2 E2) | (3(_A,2 A2 F2) (3(C2 A2 F2) | %24
[K:bass]!ped! (3(B,,2 D2 G,2)!ped-up! (3(F,2 D2 G,2) | (3(C,2 C2 A,2) (3(F,2 C2 A,2) | %26
!ped! (3(C,2 =E2 B,2) (3(G,2 E2 B,2)!ped-up! | (3(F,2 F2 C2) (3(A,2 F2 D2) | %28
 (3(=E,2 G2 C2) (3(_B,2 G2 C2) | (3(=F,2 A2 C2) (3(A,2 A2 C2) | %30
[K:treble]!ped! (3(G,2 B2 E2) (3(_D2 B2 E2)!ped-up! |!ped! (3(_A,2 A2 E2) (3(C2 A2 E2)!ped-up! | %32
[K:bass]!ped! (3(D,2 F2 B,2) (3(A,2 F2 B,2)!ped-up! | (3(_E,2 E2 C2) (3(A,2 E2 C2) | %34
 (3(E,2 E2 D2) (3(G,2 E2 D2) |!ped! (3(A,,2 C2 E,2)!ped-up! (3(!>!_F,2 D2 E,2) | %36
!ped! (3(A,,2 C2 E,2)!ped-up! (3(!>!_F,2 D2 E,2) | (3(A,,2 C2 E,2)!ped! (3(_G,,2 E2 _B,2) | %38
 (3(_G,2 E2 B,2)!ped-up! (3(F,2 E2 =A,2) |!ped! (3(B,,2 D2 F,2)!ped-up! (3(!>!_G,2 E2 F,2) | %40
!ped! (3(B,,2 D2 F,2)!ped-up! (3(!>!_G,2 E2 F,2) | %41
!ped! (3(B,,2 D2 F,2)!ped-up!!ped! (3(_A,,2 C2 F,2)!ped-up! | %42
!ped! (3(=D,2 C2 F,2)!ped-up!!ped! (3(G,,2 =B,2 F,2)!ped-up! | %43
!ped! (3(C,2 =E2 _B,2)!ped-up!!ped! (3(A,2 F2 C2)!ped-up! | %44
!ped! (3(C,2 D2 A,2) (3(F,2 D2 A,2)!ped-up! | (3(C,2 =E2 _B,2) (3(A,2 F2 C2) | %46
 (3(C,2 D2 A,2) (3(F,2 D2 A,2) |!ped! (3(C,2 =E2 G,2)!ped-up! (3(F,2 D2 A,2) | %48
!ped! (3(C,2 =E2 G,2)!ped-up! (3(F,2 D2 A,2) |!ped! (3(C,2 G,2 =E2) z4!ped-up! | z8 | %51
 (3(=E,2 G2 C2) (3(_B,2 G2 C2) | (3(=F,2 A2 C2) (3(A,2 A2 C2) | %53
[K:treble] (3(G,2 B2 =E2) (3(_D2 B2 E2) | (3(_A,2 A2 F2) (3(C2 A2 F2) | %55
[K:bass]!ped! (3(B,,2 D2 G,2)!ped-up! (3(F,2 D2 G,2) | (3(C,2 C2 A,2) (3(F,2 C2 A,2) | %57
!ped! (3(C,2 =E2 B,2) (3(G,2 E2!ped-up! B,2) | (3(F,2 F2 C2) (3(A,2 F2 D2) | %59
 (3(=E,2 G2 C2) (3(_B,2 G2 C2) | (3(=F,2 A2 C2) (3(A,2 A2 C2) | %61
[K:treble]!ped! (3(G,2 B2 =E2)!ped-up! (3(_D2 B2 E2) |!ped! (3(G,2 B2 =E2) (3(_D2 B2 E2)!ped-up! | %63
[K:bass]!ped! (3(B,,2 D2 G,2) (3(F,2 D2 G,2)!ped-up! |!ped! (3(C,2 F2 C2)!ped-up! (3(A,2 F2 D2) | %65
!ped! (3(C,2 E2 G,2) (3(F,2 D2 =E,2)!ped-up! |!ped! (3(F,2 A2 C2)!ped-up! (3(B,2 G2 D2) | %67
!ped! (3(F,2 A2 C2)!ped-up! (3(B,2 G2 D2) |!ped! !arpeggio![F,C]8- | !fermata![F,C]8!ped-up! |] %70
V:3
 x2 | x8 | x8 | x8 | x8 | x8 | x8 | x8 | x8 | x8 | x8 | x8 | x8 | x8 | x8 | x8 | x8 | x8 | x8 | %19
 x8 | x8 | x8 | x8 | x8 | x8 | x8 | x8 | x8 | x8 | x8 | x8 | x8 | x8 | x8 | x8 | x8 | x8 | x8 | %38
 x8 | x8 | x8 | x8 | x8 | x8 | x8 | x8 | x8 | x8 | x8 | x8 | x8 | x8 | x8 | x8 | x8 | x8 | x8 | %57
 x8 | x8 | x8 | x8 | x8 |!8va(! x4!8va)! x4 | x8 | x8 | x8 | x8 | x8 | !arpeggio![FA]8- | x8 |] %70

